X: 11022
M: 6/8
L: 1/8
K: Eb
!p!g |\
eBg eBg | afd Bcd | egb bag | f2f f2 (g/f/) !f!|\
eBg eBg | afd Bcd | egb afd | eee e2 H|]
!mf!f |\
g3 b2g | f2B =A2c | f2e d2B | B=AB Af"^Cres  .   .   .   .   .   .   ."f |\


